static/img/kroki/ba2d2c868697e2a2170c03b16f198a3c.svg

<?xml version="1.0" encoding="us-ascii" standalone="no"?><svg xmlns="http://www.w3.org/2000/svg" xmlns:xlink="http://www.w3.org/1999/xlink" contentStyleType="text/css" height="767px" preserveAspectRatio="none" style="width:358px;height:767px;" version="1.1" viewBox="0 0 358 767" width="358px" zoomAndPan="magnify"><defs/><g><!--class aws_ec2_keypair--><g id="elem_aws_ec2_keypair"><rect codeLine="23" fill="#3D176E" height="126.6797" id="aws_ec2_keypair" rx="2.5" ry="2.5" style="stroke:#000D19;stroke-width:0.5;" width="189" x="84" y="633.84"/><ellipse cx="101.25" cy="653.7345" fill="#ADD1B2" rx="11" ry="11" style="stroke:#181818;stroke-width:1.0;"/><path d="M104.2188,659.3752 Q103.6406,659.672 103,659.8127 Q102.3594,659.9689 101.6563,659.9689 Q99.1563,659.9689 97.8281,658.3283 Q96.5156,656.672 96.5156,653.547 Q96.5156,650.422 97.8281,648.7658 Q99.1563,647.1095 101.6563,647.1095 Q102.3594,647.1095 103,647.2658 Q103.6563,647.422 104.2188,647.7189 L104.2188,650.4377 Q103.5938,649.8595 103,649.5939 Q102.4063,649.3127 101.7813,649.3127 Q100.4375,649.3127 99.75,650.3908 Q99.0625,651.4533 99.0625,653.547 Q99.0625,655.6408 99.75,656.7189 Q100.4375,657.7814 101.7813,657.7814 Q102.4063,657.7814 103,657.5158 Q103.5938,657.2345 104.2188,656.6564 L104.2188,659.3752 Z " fill="#000000"/><text fill="#D9B8FF" font-family="Helvetica" font-size="17" lengthAdjust="spacing" textLength="142" x="120.75" y="659.6198">aws_ec2_keypair</text><line style="stroke:#000D19;stroke-width:0.5;" x1="85" x2="272" y1="673.6291" y2="673.6291"/><text fill="#D9B8FF" font-family="sans-serif" font-size="14" font-weight="bold" lengthAdjust="spacing" textLength="119" x="95" y="695.6242">key_fingerprint</text><text fill="#D9B8FF" font-family="sans-serif" font-size="14" lengthAdjust="spacing" textLength="48" x="214" y="695.6242">: string</text><text fill="#D9B8FF" font-family="sans-serif" font-size="14" font-weight="bold" lengthAdjust="spacing" textLength="70" x="95" y="721.9211">key_type</text><text fill="#D9B8FF" font-family="sans-serif" font-size="14" lengthAdjust="spacing" textLength="48" x="165" y="721.9211">: string</text><text fill="#D9B8FF" font-family="sans-serif" font-size="14" font-weight="bold" lengthAdjust="spacing" textLength="82" x="95" y="748.2179">public_key</text><text fill="#D9B8FF" font-family="sans-serif" font-size="14" lengthAdjust="spacing" textLength="48" x="177" y="748.2179">: string</text></g><!--class aws_resource--><g id="elem_aws_resource"><rect codeLine="28" fill="#3D176E" height="74.0859" id="aws_resource" rx="2.5" ry="2.5" style="stroke:#000D19;stroke-width:0.5;" width="155" x="7" y="438.75"/><ellipse cx="22" cy="458.6445" fill="#ADD1B2" rx="11" ry="11" style="stroke:#181818;stroke-width:1.0;"/><path d="M24.9688,464.2852 Q24.3906,464.582 23.75,464.7227 Q23.1094,464.8789 22.4063,464.8789 Q19.9063,464.8789 18.5781,463.2383 Q17.2656,461.582 17.2656,458.457 Q17.2656,455.332 18.5781,453.6758 Q19.9063,452.0195 22.4063,452.0195 Q23.1094,452.0195 23.75,452.1758 Q24.4063,452.332 24.9688,452.6289 L24.9688,455.3477 Q24.3438,454.7695 23.75,454.5039 Q23.1563,454.2227 22.5313,454.2227 Q21.1875,454.2227 20.5,455.3008 Q19.8125,456.3633 19.8125,458.457 Q19.8125,460.5508 20.5,461.6289 Q21.1875,462.6914 22.5313,462.6914 Q23.1563,462.6914 23.75,462.4258 Q24.3438,462.1445 24.9688,461.5664 L24.9688,464.2852 Z " fill="#000000"/><text fill="#D9B8FF" font-family="Helvetica" font-size="17" lengthAdjust="spacing" textLength="113" x="41" y="464.5298">aws_resource</text><line style="stroke:#000D19;stroke-width:0.5;" x1="8" x2="161" y1="478.5391" y2="478.5391"/><text fill="#D9B8FF" font-family="sans-serif" font-size="14" font-weight="bold" lengthAdjust="spacing" textLength="26" x="18" y="500.5342">arn</text><text fill="#D9B8FF" font-family="sans-serif" font-size="14" lengthAdjust="spacing" textLength="48" x="44" y="500.5342">: string</text></g><!--class keypair--><g id="elem_keypair"><rect codeLine="31" fill="#3D176E" height="74.0859" id="keypair" rx="2.5" ry="2.5" style="stroke:#000D19;stroke-width:0.5;" width="154" x="197.5" y="438.75"/><ellipse cx="235" cy="458.6445" fill="#ADD1B2" rx="11" ry="11" style="stroke:#181818;stroke-width:1.0;"/><path d="M237.9688,464.2852 Q237.3906,464.582 236.75,464.7227 Q236.1094,464.8789 235.4063,464.8789 Q232.9063,464.8789 231.5781,463.2383 Q230.2656,461.582 230.2656,458.457 Q230.2656,455.332 231.5781,453.6758 Q232.9063,452.0195 235.4063,452.0195 Q236.1094,452.0195 236.75,452.1758 Q237.4063,452.332 237.9688,452.6289 L237.9688,455.3477 Q237.3438,454.7695 236.75,454.5039 Q236.1563,454.2227 235.5313,454.2227 Q234.1875,454.2227 233.5,455.3008 Q232.8125,456.3633 232.8125,458.457 Q232.8125,460.5508 233.5,461.6289 Q234.1875,462.6914 235.5313,462.6914 Q236.1563,462.6914 236.75,462.4258 Q237.3438,462.1445 237.9688,461.5664 L237.9688,464.2852 Z " fill="#000000"/><text fill="#D9B8FF" font-family="Helvetica" font-size="17" lengthAdjust="spacing" textLength="62" x="259" y="464.5298">keypair</text><line style="stroke:#000D19;stroke-width:0.5;" x1="198.5" x2="350.5" y1="478.5391" y2="478.5391"/><text fill="#D9B8FF" font-family="sans-serif" font-size="14" font-weight="bold" lengthAdjust="spacing" textLength="84" x="208.5" y="500.5342">fingerprint</text><text fill="#D9B8FF" font-family="sans-serif" font-size="14" lengthAdjust="spacing" textLength="48" x="292.5" y="500.5342">: string</text></g><!--class resource--><g id="elem_resource"><rect codeLine="34" fill="#3D176E" height="310.7578" id="resource" rx="2.5" ry="2.5" style="stroke:#000D19;stroke-width:0.5;" width="227" x="65" y="7"/><ellipse cx="133.75" cy="26.8945" fill="#ADD1B2" rx="11" ry="11" style="stroke:#181818;stroke-width:1.0;"/><path d="M136.7188,32.5352 Q136.1406,32.832 135.5,32.9727 Q134.8594,33.1289 134.1563,33.1289 Q131.6563,33.1289 130.3281,31.4883 Q129.0156,29.832 129.0156,26.707 Q129.0156,23.582 130.3281,21.9258 Q131.6563,20.2695 134.1563,20.2695 Q134.8594,20.2695 135.5,20.4258 Q136.1563,20.582 136.7188,20.8789 L136.7188,23.5977 Q136.0938,23.0195 135.5,22.7539 Q134.9063,22.4727 134.2813,22.4727 Q132.9375,22.4727 132.25,23.5508 Q131.5625,24.6133 131.5625,26.707 Q131.5625,28.8008 132.25,29.8789 Q132.9375,30.9414 134.2813,30.9414 Q134.9063,30.9414 135.5,30.6758 Q136.0938,30.3945 136.7188,29.8164 L136.7188,32.5352 Z " fill="#000000"/><text fill="#D9B8FF" font-family="Helvetica" font-size="17" lengthAdjust="spacing" textLength="71" x="159.25" y="32.7798">resource</text><line style="stroke:#000D19;stroke-width:0.5;" x1="66" x2="291" y1="46.7891" y2="46.7891"/><text fill="#D9B8FF" font-family="sans-serif" font-size="14" font-weight="bold" lengthAdjust="spacing" textLength="29" x="76" y="68.7842">age</text><text fill="#D9B8FF" font-family="sans-serif" font-size="14" lengthAdjust="spacing" textLength="66" x="105" y="68.7842">: duration</text><text fill="#D9B8FF" font-family="sans-serif" font-size="14" font-weight="bold" lengthAdjust="spacing" textLength="43" x="76" y="95.0811">atime</text><text fill="#D9B8FF" font-family="sans-serif" font-size="14" lengthAdjust="spacing" textLength="70" x="119" y="95.0811">: datetime</text><text fill="#D9B8FF" font-family="sans-serif" font-size="14" font-weight="bold" lengthAdjust="spacing" textLength="43" x="76" y="121.3779">ctime</text><text fill="#D9B8FF" font-family="sans-serif" font-size="14" lengthAdjust="spacing" textLength="70" x="119" y="121.3779">: datetime</text><text fill="#D9B8FF" font-family="sans-serif" font-size="14" font-weight="bold" lengthAdjust="spacing" textLength="14" x="76" y="147.6748">id</text><text fill="#D9B8FF" font-family="sans-serif" font-size="14" lengthAdjust="spacing" textLength="48" x="90" y="147.6748">: string</text><text fill="#D9B8FF" font-family="sans-serif" font-size="14" font-weight="bold" lengthAdjust="spacing" textLength="33" x="76" y="173.9717">kind</text><text fill="#D9B8FF" font-family="sans-serif" font-size="14" lengthAdjust="spacing" textLength="48" x="109" y="173.9717">: string</text><text fill="#D9B8FF" font-family="sans-serif" font-size="14" font-weight="bold" lengthAdjust="spacing" textLength="90" x="76" y="200.2686">last_access</text><text fill="#D9B8FF" font-family="sans-serif" font-size="14" lengthAdjust="spacing" textLength="66" x="166" y="200.2686">: duration</text><text fill="#D9B8FF" font-family="sans-serif" font-size="14" font-weight="bold" lengthAdjust="spacing" textLength="90" x="76" y="226.5654">last_update</text><text fill="#D9B8FF" font-family="sans-serif" font-size="14" lengthAdjust="spacing" textLength="66" x="166" y="226.5654">: duration</text><text fill="#D9B8FF" font-family="sans-serif" font-size="14" font-weight="bold" lengthAdjust="spacing" textLength="48" x="76" y="252.8623">mtime</text><text fill="#D9B8FF" font-family="sans-serif" font-size="14" lengthAdjust="spacing" textLength="70" x="124" y="252.8623">: datetime</text><text fill="#D9B8FF" font-family="sans-serif" font-size="14" font-weight="bold" lengthAdjust="spacing" textLength="43" x="76" y="279.1592">name</text><text fill="#D9B8FF" font-family="sans-serif" font-size="14" lengthAdjust="spacing" textLength="48" x="119" y="279.1592">: string</text><text fill="#D9B8FF" font-family="sans-serif" font-size="14" font-weight="bold" lengthAdjust="spacing" textLength="34" x="76" y="305.4561">tags</text><text fill="#D9B8FF" font-family="sans-serif" font-size="14" lengthAdjust="spacing" textLength="171" x="110" y="305.4561">: dictionary[string, string]</text></g><!--reverse link aws_resource to aws_ec2_keypair--><g id="link_aws_resource_aws_ec2_keypair"><path codeLine="46" d="M107.1099,529.5649 C121.1399,562.3049 135,594.66 151.73,633.69 " fill="none" id="aws_resource-backto-aws_ec2_keypair" style="stroke:#FFAF37;stroke-width:2.0;"/><polygon fill="none" points="100.02,513.02,101.595,531.9282,112.6249,527.2016,100.02,513.02" style="stroke:#FFAF37;stroke-width:2.0;"/></g><!--reverse link keypair to aws_ec2_keypair--><g id="link_keypair_aws_ec2_keypair"><path codeLine="47" d="M251.4326,529.5097 C237.1026,562.2497 222.93,594.66 205.84,633.69 " fill="none" id="keypair-backto-aws_ec2_keypair" style="stroke:#FFAF37;stroke-width:2.0;"/><polygon fill="none" points="258.65,513.02,245.9361,527.1039,256.9292,531.9155,258.65,513.02" style="stroke:#FFAF37;stroke-width:2.0;"/></g><!--reverse link resource to aws_resource--><g id="link_resource_aws_resource"><path codeLine="48" d="M126.5769,335.4016 C112.9769,380.4416 104.56,408.34 95.45,438.51 " fill="none" id="resource-backto-aws_resource" style="stroke:#FFAF37;stroke-width:2.0;"/><polygon fill="none" points="131.78,318.17,120.833,333.6672,132.3207,337.136,131.78,318.17" style="stroke:#FFAF37;stroke-width:2.0;"/></g><!--reverse link resource to keypair--><g id="link_resource_keypair"><path codeLine="49" d="M231.5211,335.3717 C245.4011,380.4117 254.01,408.34 263.31,438.51 " fill="none" id="resource-backto-keypair" style="stroke:#FFAF37;stroke-width:2.0;"/><polygon fill="none" points="226.22,318.17,225.7872,337.1387,237.255,333.6047,226.22,318.17" style="stroke:#FFAF37;stroke-width:2.0;"/></g><!--SRC=[XLDDJ-im4BptLrZYLb6f1K4fuWAL45mGWdT3gDhQczHgOaVh3LNVntz_TjCWnmbmisPcPsOtoaOh55XMl1SbbciaDt9RRIeWACKjaTqjRM59d6GPPEVpbBotXdyKF469uW6B3sGj8LNyscYvDUYSE8keEv3Rd6njL6FF1CPv2Wr7gcK1pjqoarxNZ54PjLXVPLcgJ4rFpjLiVeazcIM5T9HCfrCrMwII7wE-tVjJyQf_evZ5HtkoZBsQlOY3wjkMGH6Lx2tQybzsV0QbjCd5HOIzD9t887Nmrmqekmlg30eNnpX6Gilx2fUzhN1nfRBveFZnA_58XjC9sBaLohFL5lSLQ19_HkEnVwyotm6f8cruFBxsXlwL7xdWsm6hUbre6JmY-5-KGEXiJH8Fza1cG1ON60vlbLsp_515rGIihGa8wxB1W36yFIO7CAswYsdJ1NmMhq1A_pyb2GUche9NmfG3EGRAxhKOyiPHop06j7zhkDEZvjslshdQpT_9P99-gb5xiM5sOBY5KguT-Gy0]--></g></svg>

<svg xmlns="http://www.w3.org/2000/svg" width="358" height="767" viewBox="0 0 358 767"><rect width="189" height="126.68" x="84" y="633.84" fill="#3D176E" rx="2.5" ry="2.5" style="stroke:#000d19;stroke-width:.5"/><circle cx="101.25" cy="653.735" r="11" fill="#ADD1B2" style="stroke:#181818;stroke-width:1"/><path d="M104.219 659.375q-.578.297-1.219.438-.64.156-1.344.156-2.5 0-3.828-1.64-1.312-1.657-1.312-4.782t1.312-4.781q1.328-1.656 3.828-1.656.703 0 1.344.156.656.156 1.219.453v2.719q-.625-.578-1.219-.844-.594-.281-1.219-.281-1.344 0-2.031 1.078-.687 1.062-.687 3.156t.687 3.172q.688 1.062 2.031 1.062.625 0 1.219-.265.594-.281 1.219-.86z"/><text x="120.75" y="659.62" fill="#D9B8FF" font-family="Helvetica" font-size="17" textLength="142">aws_ec2_keypair</text><path d="M85 673.629h187" style="stroke:#000d19;stroke-width:.5"/><text x="95" y="695.624" fill="#D9B8FF" font-family="sans-serif" font-size="14" font-weight="bold" textLength="119">key_fingerprint</text><text x="214" y="695.624" fill="#D9B8FF" font-family="sans-serif" font-size="14" textLength="48">: string</text><text x="95" y="721.921" fill="#D9B8FF" font-family="sans-serif" font-size="14" font-weight="bold" textLength="70">key_type</text><text x="165" y="721.921" fill="#D9B8FF" font-family="sans-serif" font-size="14" textLength="48">: string</text><text x="95" y="748.218" fill="#D9B8FF" font-family="sans-serif" font-size="14" font-weight="bold" textLength="82">public_key</text><text x="177" y="748.218" fill="#D9B8FF" font-family="sans-serif" font-size="14" textLength="48">: string</text><rect width="155" height="74.086" x="7" y="438.75" fill="#3D176E" rx="2.5" ry="2.5" style="stroke:#000d19;stroke-width:.5"/><circle cx="22" cy="458.644" r="11" fill="#ADD1B2" style="stroke:#181818;stroke-width:1"/><path d="M24.969 464.285q-.578.297-1.219.438-.64.156-1.344.156-2.5 0-3.828-1.64-1.312-1.657-1.312-4.782t1.312-4.781q1.328-1.656 3.828-1.656.703 0 1.344.156.656.156 1.219.453v2.719q-.625-.579-1.219-.844-.594-.281-1.219-.281-1.343 0-2.031 1.078-.687 1.062-.687 3.156t.687 3.172q.688 1.062 2.031 1.062.625 0 1.219-.265.594-.281 1.219-.86z"/><text x="41" y="464.53" fill="#D9B8FF" font-family="Helvetica" font-size="17" textLength="113">aws_resource</text><path d="M8 478.539h153" style="stroke:#000d19;stroke-width:.5"/><text x="18" y="500.534" fill="#D9B8FF" font-family="sans-serif" font-size="14" font-weight="bold" textLength="26">arn</text><text x="44" y="500.534" fill="#D9B8FF" font-family="sans-serif" font-size="14" textLength="48">: string</text><rect width="154" height="74.086" x="197.5" y="438.75" fill="#3D176E" rx="2.5" ry="2.5" style="stroke:#000d19;stroke-width:.5"/><circle cx="235" cy="458.644" r="11" fill="#ADD1B2" style="stroke:#181818;stroke-width:1"/><path d="M237.969 464.285q-.578.297-1.219.438-.64.156-1.344.156-2.5 0-3.828-1.64-1.312-1.657-1.312-4.782t1.312-4.781q1.328-1.656 3.828-1.656.703 0 1.344.156.656.156 1.219.453v2.719q-.625-.579-1.219-.844-.594-.281-1.219-.281-1.344 0-2.031 1.078-.687 1.062-.687 3.156t.687 3.172q.688 1.062 2.031 1.062.625 0 1.219-.265.594-.281 1.219-.86z"/><text x="259" y="464.53" fill="#D9B8FF" font-family="Helvetica" font-size="17" textLength="62">keypair</text><path d="M198.5 478.539h152" style="stroke:#000d19;stroke-width:.5"/><text x="208.5" y="500.534" fill="#D9B8FF" font-family="sans-serif" font-size="14" font-weight="bold" textLength="84">fingerprint</text><text x="292.5" y="500.534" fill="#D9B8FF" font-family="sans-serif" font-size="14" textLength="48">: string</text><rect width="227" height="310.758" x="65" y="7" fill="#3D176E" rx="2.5" ry="2.5" style="stroke:#000d19;stroke-width:.5"/><circle cx="133.75" cy="26.895" r="11" fill="#ADD1B2" style="stroke:#181818;stroke-width:1"/><path d="M136.719 32.535q-.578.297-1.219.438-.64.156-1.344.156-2.5 0-3.828-1.64-1.312-1.657-1.312-4.782t1.312-4.781q1.328-1.656 3.828-1.656.703 0 1.344.156.656.156 1.219.453v2.719q-.625-.578-1.219-.844-.594-.281-1.219-.281-1.344 0-2.031 1.078-.687 1.062-.687 3.156t.687 3.172q.688 1.062 2.031 1.062.625 0 1.219-.265.594-.281 1.219-.86z"/><text x="159.25" y="32.78" fill="#D9B8FF" font-family="Helvetica" font-size="17" textLength="71">resource</text><path d="M66 46.789h225" style="stroke:#000d19;stroke-width:.5"/><text x="76" y="68.784" fill="#D9B8FF" font-family="sans-serif" font-size="14" font-weight="bold" textLength="29">age</text><text x="105" y="68.784" fill="#D9B8FF" font-family="sans-serif" font-size="14" textLength="66">: duration</text><text x="76" y="95.081" fill="#D9B8FF" font-family="sans-serif" font-size="14" font-weight="bold" textLength="43">atime</text><text x="119" y="95.081" fill="#D9B8FF" font-family="sans-serif" font-size="14" textLength="70">: datetime</text><text x="76" y="121.378" fill="#D9B8FF" font-family="sans-serif" font-size="14" font-weight="bold" textLength="43">ctime</text><text x="119" y="121.378" fill="#D9B8FF" font-family="sans-serif" font-size="14" textLength="70">: datetime</text><text x="76" y="147.675" fill="#D9B8FF" font-family="sans-serif" font-size="14" font-weight="bold" textLength="14">id</text><text x="90" y="147.675" fill="#D9B8FF" font-family="sans-serif" font-size="14" textLength="48">: string</text><text x="76" y="173.972" fill="#D9B8FF" font-family="sans-serif" font-size="14" font-weight="bold" textLength="33">kind</text><text x="109" y="173.972" fill="#D9B8FF" font-family="sans-serif" font-size="14" textLength="48">: string</text><text x="76" y="200.269" fill="#D9B8FF" font-family="sans-serif" font-size="14" font-weight="bold" textLength="90">last_access</text><text x="166" y="200.269" fill="#D9B8FF" font-family="sans-serif" font-size="14" textLength="66">: duration</text><text x="76" y="226.565" fill="#D9B8FF" font-family="sans-serif" font-size="14" font-weight="bold" textLength="90">last_update</text><text x="166" y="226.565" fill="#D9B8FF" font-family="sans-serif" font-size="14" textLength="66">: duration</text><text x="76" y="252.862" fill="#D9B8FF" font-family="sans-serif" font-size="14" font-weight="bold" textLength="48">mtime</text><text x="124" y="252.862" fill="#D9B8FF" font-family="sans-serif" font-size="14" textLength="70">: datetime</text><text x="76" y="279.159" fill="#D9B8FF" font-family="sans-serif" font-size="14" font-weight="bold" textLength="43">name</text><text x="119" y="279.159" fill="#D9B8FF" font-family="sans-serif" font-size="14" textLength="48">: string</text><text x="76" y="305.456" fill="#D9B8FF" font-family="sans-serif" font-size="14" font-weight="bold" textLength="34">tags</text><text x="110" y="305.456" fill="#D9B8FF" font-family="sans-serif" font-size="14" textLength="171">: dictionary[string, string]</text><path fill="none" d="M107.11 529.565c14.03 32.74 27.89 65.095 44.62 104.125m-51.71-120.67 1.575 18.908 11.03-4.726zm151.413 16.49c-14.33 32.74-28.503 65.15-45.593 104.18m52.81-120.67-12.714 14.084 10.993 4.811zM126.577 335.402c-13.6 45.04-22.017 72.938-31.127 103.108m36.33-120.34-10.947 15.497 11.488 3.469z" style="stroke:#ffaf37;stroke-width:2"/><g fill="none"><path d="M231.521 335.372c13.88 45.04 22.489 72.968 31.789 103.138" style="stroke:#ffaf37;stroke-width:2"/><path d="m226.22 318.17-.433 18.969 11.468-3.534z" style="stroke:#ffaf37;stroke-width:2"/></g></svg>
